X:1
T:La fleur que tu m’avais jetée
T:Carmen
T:Georges Bizet
%%score 1 2 { ( 3 6 7 ) | ( 4 5 ) }
L:1/8
Q:1/4=63
M:3/4
K:G
V:1 treble transpose=-2 nm="B♭ Clarinet" snm="B♭ Cl."
V:2 treble nm="Don José" snm="Don José"
V:3 treble nm="Piano" snm="Pno."
V:6 treble 
V:7 treble 
V:4 bass 
V:5 bass 
V:1
[K:A]"^Andante" z6 | z6 | z6 | z6 | z6 | z6 | z6 || %7
w: |||||||
[K:Eb][M:4/4][Q:1/4=69]"^Andantino" g2"^con amore" e B G ^F G d | c4 B z B2 | e e e2- eg=fc | %10
w: La fleur que tu m'a- vais je-|tée _ Dans|ma pri- son _ m'é- tait res-|
 d4- d z e2 | d =B c2- c f d c | _B4 z B d c | B4- B B d c | B4 z2 B B | %15
w: té- e Flé-|trie et sè- * che cet- te|fleur gar- dait tou-|jours * sa dou- ce.o-|deur Et pen-|
 =B3!<(! B (^AB) (^c B)!<)! | =e4- e z e ^d | ^f3!>(! ^c c2 ^d!>)! =e | ^d4- d z _e2 | %19
w: dant des heu- * res en-|tiè- res, sur mes|yeux fer- mant mes pau-|piè- res De|
 e =d!<(! =f2- f e d!<)! e | b4 z =G _A B | (d2 c2-) c!>(! B{/Bd} c>B!>)! | B4- B z B2 | %23
w: cette o- deur _ je m'en- ni-|vrais Et dans la|nuit _ _ je te vo-|yais _ Je|
[Q:1/4=79]"^Animez, mais très peu" =B B B2- B B e3/2 d/ | (d2 c2) z2 e2 | %25
w: me pre- nais _ à te mau-|di- re A|
 d2 c3/2 e/ g3/2 z/ f3/2 e/ | (d2 c2) z2[Q:1/4=69] c2 | c!<(! _B B2- B =A B c!<)! | %28
w: te dé- tes- ter, à me|di- re Pour-|quoi faut il * que le des-|
 f2- f z (_ge) B _G | B2- B z c2 c3/2 c/ | d4- d z!pp! d2 | z d d d d2 d3/2 d/ | =e4 e z e e | %33
w: tin _ l'ait * mi- se|là _ sur mon che-|min! * Puis,|je m'ac- cu- sais de blas-|phè- me Et je|
 =e e e4 e3/2 e/ | f3 f z!<(! f f f |"^string." ^f4- f f f3/2 f/!<)! | g4 z =f _e f | g4 z f ef | %38
w: ne sen- tais en moi|mê- me, Je ne sen-|tais * qu'un seul- dé-|sir, un seul dé-|sir un seul es-|
[Q:1/4=63]"^Tempo I" g!f! z _b2 a g e c | B-B/ z/ e4 !fermata!d3/2 e/ | e-e/ z/!>(! b4 a g!>)! | %41
w: poir: te re- voir, O Car-|men * Oui, te re-|voir _ Car tu n'a-|
 g f g!<(! a!<)!!>(! (c2!>)! _d2) | c z!>(! a4 (g!>)!f) | (fe) f g B2!<(!!>(!{/_d} _c2!<)!!>)! | %44
w: vais eu qu'à pa- rai- *|tre, qu'à je- *|ter _ un re- gard sur|
 B z!>(! g4 f!>)! e | e =d e f B3 B | z e f g B4 | z!pp! c d e f g a b | c'6- c' z | %49
w: moi, Pour t'em- pa-|rer de tout mon ê- tre|O ma Car- men!|Et j'é- tais u- ne chose à|toi _|
 z2!pp! A2 B2 z c | d8- |!<(! d8!<)! |!>(! e4-!>)! e z z2 | z8 | z8 | z8 | z8 |] %57
w: Car- men Je|t'ai-||* me|||||
V:2
 z6 | z6 | z6 | z6 | z6 | z6 | z6 ||[K:Db][M:4/4] f2"^con amore" d A F =E F c | B4 A z A2 | %9
w: |||||||La fleur que tu m'a- vais je-|tée _ Dans|
 d d d2- df_eB | c4- c z d2 | c =A B2- B e c B | _A4 z A c B | A4- A A c B | A4 z2 A A | %15
w: ma pri- son _ m'é- tait res-|té- e Flé-|trie et sè- * che cet- te|fleur gar- dait tou-|jours * sa dou- ce.o-|deur Et pen-|
 =A3!<(! A (^GA) (=B A)!<)! | =d4- d z d ^c | =e3!>(! =B B2 ^c!>)! =d | ^c4- c z _d2 | %19
w: dant des heu- * res en-|tiè- res, sur mes|yeux fer- mant mes pau-|piè- res De|
 d =c!<(! _e2- e d c!<)! d | a4 z =F _G A | (c2 B2-) B!>(! A{/Ac} B>A!>)! | A4- A z A2 | %23
w: cette o- deur _ je m'en- ni-|vrais Et dans la|nuit _ _ je te vo-|yais _ Je|
"^Animez, mais très peu" =A A A2- A A d3/2 c/ | (c2 B2) z2 d2 | c2 B3/2 d/ f3/2 z/ e3/2 d/ | %26
w: me pre- nais _ à te mau-|di- re A|te dé- tes- ter, à me|
 (c2 B2) z2 B2 | B!<(! _A A2- A =G A B!<)! | e2- e z (_fd) A _F | A2- A z B2 B3/2 B/ | %30
w: di- re Pour-|quoi faut il * que le des-|tin _ l'ait * mi- se|là _ sur mon che-|
 c4- c z!pp! c2 | z c c c c2 c3/2 c/ | =d4 d z d d | =d d d4 d3/2 d/ | e3 e z!<(! e e e | %35
w: min! * Puis,|je m'ac- cu- sais de blas-|phè- me Et je|ne sen- tais en moi|mê- me, Je ne sen-|
"^string." =e4- e e e3/2 e/!<)! | f4 z _e _d e | f4 z e de | f!f! z _a2 g f d B | %39
w: tais * qu'un seul- dé-|sir, un seul dé-|sir un seul es-|poir: te re- voir, O Car-|
 A-A/ z/ d4 !fermata!c3/2 d/ | d-d/ z/!>(! a4 g f!>)! | f e f!<(! g!<)!!>(! (B2!>)! _c2) | %42
w: men * Oui, te re-|voir _ Car tu n'a-|vais eu qu'à pa- rai- *|
 B z!>(! g4 (f!>)!e) | (ed) e f A2!<(!!>(!{/_c} __B2!<)!!>)! | A z!>(! f4 e!>)! d | d =c d e A3 A | %46
w: tre, qu'à je- *|ter _ un re- gard sur|moi, Pour t'em- pa-|rer de tout mon ê- tre|
 z d e f A4 | z!pp! B c d e f g a | b6- b z | z2!pp! G2 A2 z B | c8- |!<(! c8!<)! | %52
w: O ma Car- men!|Et j'é- tais u- ne chose à|toi _|Car- men Je|t'ai-||
!>(! d4-!>)! d z z2 | z8 | z8 | z8 | z8 |] %57
w: * me|||||
V:3
 (!///-![d_b]3 d'3) | (!///-![d_b]3 d'3) | (!///-![g_b]3 g'3) | (!///-![_g_b]3 _g'3) | %4
 (!///-![=f_b]2 =f'2) (!///-![fd'] f') | %5
 (!///-![_f_d'] _f') (!///-![_e=c'] _e') (!///-![_d_b] d') | (!///-![c_g_a] c') [cga] z z2 || %7
[K:Db][M:4/4] [Af] [Af]2 [Af] [Bf] [Bf]2 [Bf] | [EBe] [EBe]2 [EBe] [EBe] [EBe]2 [EBe] | %9
 [FAd] [FAd]2 [FAd] [EGd] [EGd]2 [EGd] | [EGc] [EGc]2 [EGc] [DFc] [DFc]2 [DFc] | %11
 [DFB] [DFB]2 [DFB] [CEB] [CEB]2 [CEB] | [CEA] [CEA]2 [EA] [DA] [DA]2 [DA] | %13
 [=DA] [DA]2 [DA] [EA] [EA]2 [=EA] | [FA] [DFA]2 [DFA] [DFA] [DFA]2 [DFA] | %15
 [=E=A] [EA]2 [EA] [EA] [EA]2 [EA] | [^F=A] [FA]2 [FA] [=DA] [DA]2 [DA] | ^G4 =B4 | ^c4 =e4 | %19
 =g4 b4 | [Adfa] [Adfa]2 [Adfa] [DFA] [DFA]2 [DFA] | [DE_G] [DEG]2 [DEG] [A,CG] [A,CG]2 [A,CG] | %22
 [A,DG] [A,DG]2 [A,DG] [A,DF] [DF]2 [DF] | z2 (=A2 [df]2 A) z | z2 (B2 [eg]2 =A) z | %25
 z2 (B2 [g=a]2 [=Ac]) z | z2 ([Bd]2 [bd']2- [bd']) z | z4 [=G,B,_F]4 | [A,E]4 [_F,A,D]4 | %29
 C2 [CE]2 =G2 =F2 | ([=E=G=e][=Af][B=g][c=a] [=db][ec'][f=d'][g=e'] |!pp! f') z z2 z4 | %32
 (!///-![=df=a]2 =d'2) (!///-![dfa]2 d'2) | (!///-![=dfb]2 =d'2) (!///-![dfb]2 d'2) | %34
 (!///-![e_ac']2 e'2) (!///-![eac']2 e'2) | (!///-![=eb_d']3 =e'3) (!///-![ebc'] e') | %36
 [f=ac'f'] (cfa c'bc) z | z (cf=a c'bc) z | z ([F_Ad][Adf][cda] [Bdg][Adf][GBd][DGB] | %39
 [DFA]) z ([DGB]2 [A,EG]2- [A,EG]) z | ([dfad']2 fa [=dfa_c']2 ba | [Beg]2) (g4 [_c=da]d | %42
 [GBf]e)(eg [=ceg__b]2 ag | [Adf]2) (d4 [=G__Bd_f]G | [D=F_B]2) [Ad]f [d=gb]2 =G2 | z4 dcde | %46
 z4 z (def | [CEA]2) E/A/c/e/ a z z2 | %48
 (3z [DGB][GBd] (3[Bdg][GBd][Bdg] (3[dgb][Bdg][dgb] (3[gbd'][dgb][gbd'] | .[bd'g'] z z2 z4 | %50
 z4 ([=e=a]4 | [=e=g]4 [f=a]4) | ([f_abd']2 d'a f=efc' | baf_e dAGF) | (A6 G2) | ([EG]4 [DF]4-) | %56
 [DF] z z2 z4 |] %57
V:4
 _B2- (B=A_GA | =F2) [_B,,,_B,,]2 [B,,,B,,]2 | =F2- (F=E_DE | C2) [_B,,,_B,,]2 [B,,,B,,]2 | %4
 _E2- (ED_CD | _B,2 =C2 _D2 | =F4 _E2) ||[K:Db][M:4/4] D8 | C8 | B,4 E,4 | A,8 | G,8 | %12
 x4 (F, F,2 F, | F, F,2 F, G, G,2 G, | F,2) z2 A,4 | ^C,8 | =B,,8 | =E,8 | =A,4 =A,,4 | %19
 [_B,,_D,]4 [E,,E,]4 | (F,4 A,4) | (A,,4 E,4) | F,4- F, z z2 | [DF] [DF]2 [DF] [DF] [DF]2 [DF] | %24
 [DF] [DF]2 [DF] [DEG] [DEG]2 [DEG] | [DF] [DF]2 [DF] [DEG] [DEG]2 [DEG] | %26
 [DF] [DF]2 [DF] [DF]2 z2 | z4 z2 D,2- | D,2 C,4 B,,2 | x4 (=E,2 =F,2) | %30
 [C,=G,C] z [C,C]2 [C,C]2 [C,C]2 | ([F,,F,]CF=G =AFC) z | =D,(=A,=D=E FDA,) z | %33
 B,,(F,B,C =DB,F,) z | _A,,(EAB c!<(!AE) z | (_G,,=E,B,C DB,E,) z!<)! | %36
 [F,,F,]2 ([F,=A,CF]2 [G,B,C_E]2) z ([G,,G,] | [F,,F,]2 [F,=A,CF]2 [G,B,CE]2) z ([G,,G,] | %38
!f! [F,,F,]2- [F,,F,] z z2 [G,,,G,,]2 | [A,,,A,,]4- [A,,,A,,] z z2 | %40
 D,/F,/A,/D/ F/D/A,/F,/) (_D,/F,/A,/_C/ =D/C/A,/F,/) | %41
 (_D,/E,/G,/B,/ E/B,/G,/E,/) (D,/E,/G,/B,/ _C/A,/F,/=D,/) | %42
 (_D,/E,/G,/B,/ E/B,/G,/E,/) (D,/E,/_G,/__B,/ =C/B,/G,/E,/) | %43
 (D,/F,/A,/D/ F/D/A,/F,/) (D,/F,/A,/D/ _F/D/__B,/=G,/) | %44
 (D,/F,/A,/D/ F/D/A,/F,/) (D,/E,/=G,/B,/ E/B,/G,/E,/) | %45
 (D,/E,/_G,/A,/ C/A,/G,/E,/) (D,/E,/G,/A,/ C/A,/G,/E,/) | %46
 (D,/F,/A,/D/ F/D/A,/F,/) (D,/F,/A,/D/ F/D/A,/F,/) | D,/E,/A,/C/ z2 z4 | [D,G,B,]8- | %49
 [D,G,B,] z z2 z4 | z4 ([=Ac]4 | c4 [Fc]4) | %52
 (D,,/F,,/_A,,/D,/ F,/_A,/D/F/ A/F/D/A,/ F,/D,/A,,/F,,/ | D,,/F,,/A,,/D,/ F,/A,/D/F/ A) z z2 | z8 | %55
 z4 z2 .A,, z | .D,, z z2 z4 |] %57
V:5
 x6 | x6 | x6 | x6 | x6 | G,6 | _A,2- A, z z2 ||[K:Db][M:4/4] x8 | x8 | x8 | x8 | x8 | (F,4 B,,4 | %13
 =B,,4 C,4 | D,8) | x8 | x8 | x8 | x8 | x8 | A,,8 | A,,8 | x8 | x8 | x8 | x8 | x8 | x8 | x8 | %29
 E,4 D,4 | x8 | x8 | x8 | x8 | x8 | x8 | x8 | x8 | x8 | x8 | x8 | x8 | x8 | x8 | x8 | x8 | x8 | %47
 x8 | x8 | x8 | x8 | x8 | x8 | x8 | x8 | x8 | x8 |] %57
V:6
 x6 | x6 | x6 | x6 | x6 | x6 | x6 ||[K:Db][M:4/4] x8 | x8 | x8 | x8 | x8 | x8 | x8 | x8 | %15
 =A,4 ^C4 | =D4 ^F4 | =D D2 D [D^G] [DG]2 [DG] | [^C=E^G] [CEG]2 [CEG] [G^c] [Gc]2 [Gc] | %19
 [=G_d_e] [Gde]2 [Gde] [de=g] [deg]2 [deg] | x8 | x8 | x8 | x8 | x8 | x8 | x8 | x8 | x8 | %29
 A,2 A,2 B,4 | x8 | (!///-![f=a]2 c'2) (!///-![fa]2 c'2) | x8 | x8 | x8 | x8 | x8 | x8 | x8 | x8 | %40
 x8 | x8 | x8 | x8 | x8 | A8 | A8 | x8 | x8 | x8 | x8 | x8 | x8 | x8 | z2 A,2 F2 E2 | A,8- | %56
 A, z z2 z4 |] %57
V:7
 x6 | x6 | x6 | x6 | x6 | x6 | x6 ||[K:Db][M:4/4] x8 | x8 | x8 | x8 | x8 | x8 | x8 | x8 | x8 | x8 | %17
 x8 | x8 | x8 | x8 | x8 | x8 | x8 | x8 | x8 | x8 | x8 | x8 | x8 | x8 | x8 | x8 | x8 | x8 | x8 | %36
 x8 | x8 | x8 | x8 | x8 | x8 | x8 | x8 | x8 | (_G8 | F2) z2 z4 | x8 | x8 | x8 | x8 | x8 | x8 | x8 | %54
 x8 | x8 | x8 |] %57

